X: 20412
T: CLARK'S HORNPIPE
C:
%R: hornpipe, reel
B: Elias Howe "The Musician's Companion" 1843 p.41 #2
S: http://imslp.org/wiki/The_Musician's_Companion_(Howe,_Elias)
Z: 2015 John Chambers <jc:trillian.mit.edu>
M: 2/4
L: 1/16
K: D
% - - - - - - - - - - - - - - - - - - - - - - - - -
(3(ABc) |\
d2AG FDFA | BGBd cAce | fdge afed | c2e2 egfe |\
d2AG FDFA | BGBd cAce | fdge faec | d2d2d2 :|
|: (3(fga) |\
b2ag fdfa | g2ed cAce | fdge afed | c2A2 A2dc |\
B2GG g2ee | c2AA agfe | fadf egce | d2d2d2 :|
% - - - - - - - - - - - - - - - - - - - - - - - - -

%%sep 1 1 500

